X: 23759
T: Little Custard Fairies, The
R: jig
M: 6/8
K: Emajor
Bee efg|fec e2g|a2a age|f3 fec|
Bee efg|fec ega|bBB afd|1 e3 e3:|2 e3 ega]|
|:bBB bBB|aBB aBB|gBb gfe|f3 fec|
Bee efg|fec ega|bBB afd|1 e3 ega:|2 e3 e3||

